X: 48
T:V. Ande, ande, ande
M:2/4
L:1/8
Q:250
C:Trad
R:Villancico.
K:C
C{G}C {G}CD | E{c}E-E2 | G{c}G {c}G{c}G | F D3  | F{c}F EF | GA GF | E2
D2 |1 DC-C2 :|2 DC Gc |
{g}c {g}c | {g}cBdc |  ABcd  | cBAG | GcBA | BAGA | G{c}G {c}G | {c}G
 FE | D C2- | C2
 "D.C."|

